!!!OTL: Drohende Bitte (98), S. 247f
!!!id: T0259
**kern
*clefG2
*k[f#c#]
*D:
{8f#
=1
8.f#
16f#
16f#
16f#
8f#
8e
8d
=2
2a}
8r
=3
{8a
=4
8.cc#
16b
8a
8g
8e
8a
=5
2f#}
8r
=6
{8d
=7
8.d
8f#
16a
8dd
8cc#
8b
=8
8b
4.a}
8r
=9
{8a
=10
8.cc#
16b
8a
8g
8e
8a
=11
2f#}
8r
=12
{8d
=13
8.d
16f#
8a
8dd
8cc#
8b
=14
8b
4.a}
8r
=15
{8a
=16
8.cc#
16b
8a
8g
8e
8a
=17
2f#}
8r
==
*-
!!!minrhy: 16
!!!meters: 6/8 ]  ZZ[6
!!!cut: Drohende Bitte (98), S. 247f
!!!reg: Luxemburg
!!!trd: Singendes Volk, Esch-Alzette 1937 posth.
!!!rhy1: X_  X_.XXXX_X_X_  X___0_
!!!rhy2: X_  X_.XX_X_X_X_  X___0_
!!!key: T0259  16  D 6/8 ]  ZZ[6
!!!mod: HEPTATONIK IONISCH]  AMBITUS[8
!!!kad: 535353
!!!akz: 3355_7433_1+165_7433_1+165_7433_
!!!fot: 'a__b__c__b__c__b__
!!!for: 'a__b__c__b__bw_b__
!!!fok: '/__^d_^a_^d_^a_^d_
!! PHRAS[AUFTAKTIG]
!!!fkt: Liebeslieder
!!!bem: Brandenburg, fff Barbara Schmit, 29.12.1934
!! THILL, Mathias:
!! PR[50] 2K[0] 2G[5] 3K[7] 3G[2] 4A[2] 4Ü[0] 5A[0] 6K[0] 6G[0]
!! 7K[0] 7G[0] 8A[0] MEHR[0] SI[17] ABS[42] SR[5] SP[12]
!! ST[12] 2k[7] 2g[24] 3k[2] 3g[0] 4d[0] 4ü[0] 5d[0] 6k[0] 6g[0]
!! 7k[0] 7g[0] 8d[0] mehr[0] si[33] dm[-16] sr[31] sp[2]
!! 1F[4] 2F[87] 3F[9] 4F[0] LF[0] 2P[0] 3P[0] 4P[0] TRI[0] DF[3] AB[45]
!! TF[0] U3K[0] U3[0] U4[0] U4Ü[0] U5[0] U6K[0] U6[0] U7K[0] U7[2]
!! N1[7] N2K[0] N2[19] N3K[0] N3[37] N4[7] N4Ü[0] N5[26] N6K[0] N6[2]
!!!n7k: 0] N7[0] O1[0] O2K[0] O2[0] O3K[0] O3[0] HÖ[0
